public/img/icons/prize2.svg

<svg width="336" height="110" viewBox="0 0 336 110" fill="none" xmlns="http://www.w3.org/2000/svg">
<path d="M110.333 55.0217C110.333 85.3885 85.6343 110 55.1663 110C24.6983 110 0 85.3885 0 55.0217C0 24.6549 24.7128 0 55.1663 0C85.6198 0 110.333 24.6115 110.333 55.0217ZM61.4999 19.1166C59.4321 18.9286 57.3209 18.8419 55.1663 18.8419C53.0117 18.8419 50.9294 18.9286 48.8616 19.1166V48.4567H61.4999V19.1166ZM90.7099 36.2232C86.2561 34.7627 81.542 33.5625 76.611 32.6804V57.3209C76.611 75.0638 69.0627 84.3762 55.1663 84.3762C41.2699 84.3762 33.7505 75.0493 33.7505 57.3209V32.666C28.8195 33.548 24.1199 34.7627 19.6516 36.2088V57.4366C19.6516 76.9291 35.558 92.8645 55.1663 92.8645C74.7746 92.8645 90.7099 76.9436 90.7099 57.4366V36.2088V36.2232Z" fill="white"/>
<path d="M171.616 63.6545C166.641 63.6545 162.882 65.679 161.016 68.7446C159.122 65.6935 155.015 63.6545 150.72 63.6545C142.29 63.6545 137.981 68.9904 137.981 75.5988V91.4618H145.847V76.7122C145.847 73.5744 147.51 70.769 151.328 70.769C155.145 70.769 157.112 73.4297 157.112 76.611V91.4763H165.007V76.611C165.007 73.4442 166.873 70.769 170.647 70.769C174.421 70.769 176.243 73.5744 176.243 76.7122V91.4618H184.109V75.5988C184.109 68.9904 180.046 63.6545 171.587 63.6545" fill="white"/>
<path d="M219.248 81.8746V64.1751H211.454L211.512 68.4843C209.82 65.9537 206.841 63.6545 201.549 63.6545C192.453 63.6545 187.782 70.7112 187.782 77.7968C187.609 84.9691 192.901 92.1125 201.158 92.1125C205.525 92.1125 209.531 90.1749 211.454 86.7477C212.235 89.0036 214.187 91.4763 218.236 91.4763H222.747V84.8679H221.489C219.899 84.8679 219.234 84.2895 219.234 81.8891M203.183 85.2728C198.7 85.2728 195.374 82.1927 195.374 77.8546C195.374 73.5165 198.714 70.5521 203.183 70.5521C207.651 70.5521 211.136 73.5744 211.136 77.8546C211.136 82.1349 207.795 85.2728 203.183 85.2728Z" fill="white"/>
<path d="M227.765 73.4875V91.4617H235.632V79.4017C235.632 74.731 239.03 71.7378 243.339 71.7378H248.487V63.6255H244.626C239.869 63.6255 236.398 67.6744 235.646 70.0459V64.1894H227.78V73.5019L227.765 73.4875Z" fill="white"/>
<path d="M253.143 91.4618H261.01V78.1004L273.243 91.4618H282.541L269.859 77.4352L281.558 64.1751H272.303L261.01 76.958V55.7302H253.143V91.4618Z" fill="white"/>
<path d="M291.752 79.9658C291.752 82.9736 293.314 85.9958 298.346 85.9958C302.959 85.9958 303.624 83.2194 303.624 83.2194H312.272C312.272 83.2194 311.462 92.1125 298.332 92.1125C289.178 92.1125 283.452 86.9936 283.452 77.8546C283.452 68.7157 289.178 63.6545 298.245 63.6545C307.312 63.6545 312.937 68.7157 312.937 77.8546C312.937 78.8524 312.763 79.9658 312.763 79.9658H291.738H291.752ZM291.868 75.165H304.55C304.55 72.9381 303.263 69.7713 298.26 69.7713C293.256 69.7713 291.868 72.9381 291.868 75.165Z" fill="white"/>
<path d="M330.911 84.6219C328.221 84.6219 327.238 83.4217 327.238 79.6186V70.0025H335.77V63.6688H327.238V58.2173H322.987L315.395 65.4764V70.0025H319.372V80.6453C319.372 88.2804 323.102 91.505 330.911 91.505H335.784V84.6075H330.911V84.6219Z" fill="white"/>
<path d="M226.102 34.3288C226.102 38.7825 223.586 40.8359 219.841 40.8359C216.096 40.8359 213.666 38.8115 213.666 34.3288V19.6226H205.583V34.6035C205.583 44.3642 213.753 48.1962 219.884 48.1962C226.016 48.1962 234.2 44.3642 234.2 34.6035V19.6226H226.117L226.073 34.3143L226.102 34.3288Z" fill="white"/>
<path d="M198.772 26.4479V19.6226H172.527V26.4479H188.057L171.89 40.8504V47.6757H199.741V40.8504H182.634L198.772 26.4479Z" fill="white"/>
<path d="M274.646 19.0876C269.527 19.0876 265.666 21.1699 263.757 24.3368C261.805 21.1699 257.582 19.0876 253.187 19.0876C244.554 19.0876 240.057 24.5826 240.057 31.379V47.6758H248.14V32.5358C248.14 29.2822 249.846 26.4335 253.765 26.4335C254.56 26.3901 255.37 26.5058 256.108 26.795C256.859 27.0842 257.539 27.518 258.103 28.082C258.667 28.6459 259.101 29.3256 259.39 30.0775C259.665 30.8295 259.795 31.6248 259.737 32.4201V47.6902H267.82V32.4201C267.82 29.1665 269.744 26.4191 273.619 26.4191C277.494 26.4191 279.36 29.2822 279.36 32.5213V47.6613H287.443V31.3934C287.443 24.597 283.279 19.1021 274.588 19.1021H274.66L274.646 19.0876Z" fill="white"/>
<path d="M158.5 34.3288C158.5 38.7825 155.984 40.8359 152.268 40.8359C148.551 40.8359 146.064 38.8115 146.064 34.3288V19.6226H137.981V34.6035C137.981 44.3642 146.122 48.1962 152.282 48.1962C158.442 48.1962 166.569 44.3642 166.569 34.6035V19.6226H158.486V34.3143L158.5 34.3288Z" fill="white"/>
</svg>

<svg width="336" height="110" fill="none" xmlns="http://www.w3.org/2000/svg"><path d="M110.333 55.022c0 30.366-24.699 54.978-55.167 54.978S0 85.388 0 55.022C0 24.655 24.713 0 55.166 0c30.454 0 55.167 24.611 55.167 55.022ZM61.5 19.117a69.955 69.955 0 0 0-6.334-.275c-2.154 0-4.237.087-6.304.275v29.34H61.5v-29.34Zm29.21 17.106A104.111 104.111 0 0 0 76.61 32.68v24.64c0 17.744-7.548 27.056-21.445 27.056-13.896 0-21.415-9.327-21.415-27.055V32.666c-4.931.882-9.631 2.097-14.1 3.543v21.228c0 19.492 15.907 35.428 35.515 35.428 19.609 0 35.544-15.921 35.544-35.428V36.209v.014ZM171.616 63.654c-4.975 0-8.734 2.025-10.6 5.09-1.894-3.05-6.001-5.09-10.296-5.09-8.43 0-12.739 5.336-12.739 11.945v15.863h7.866v-14.75c0-3.138 1.663-5.943 5.481-5.943 3.817 0 5.784 2.66 5.784 5.842v14.865h7.895V76.611c0-3.167 1.866-5.842 5.64-5.842 3.774 0 5.596 2.805 5.596 5.943v14.75h7.866V75.599c0-6.609-4.063-11.945-12.522-11.945M219.248 81.875v-17.7h-7.794l.058 4.31c-1.692-2.531-4.671-4.83-9.963-4.83-9.096 0-13.767 7.056-13.767 14.142-.173 7.172 5.119 14.316 13.376 14.316 4.367 0 8.373-1.938 10.296-5.365.781 2.256 2.733 4.728 6.782 4.728h4.511v-6.608h-1.258c-1.59 0-2.255-.578-2.255-2.979m-16.051 3.384c-4.483 0-7.809-3.08-7.809-7.418 0-4.339 3.34-7.303 7.809-7.303 4.468 0 7.953 3.022 7.953 7.303 0 4.28-3.341 7.418-7.953 7.418ZM227.765 73.487v17.975h7.867v-12.06c0-4.671 3.398-7.664 7.707-7.664h5.148v-8.112h-3.861c-4.757 0-8.228 4.048-8.98 6.42v-5.857h-7.866v9.313l-.015-.014ZM253.143 91.462h7.867V78.1l12.233 13.362h9.298l-12.682-14.027 11.699-13.26h-9.255L261.01 76.958V55.73h-7.867v35.732ZM291.752 79.966c0 3.008 1.562 6.03 6.594 6.03 4.613 0 5.278-2.777 5.278-2.777h8.648s-.81 8.894-13.94 8.894c-9.154 0-14.88-5.12-14.88-14.258 0-9.14 5.726-14.2 14.793-14.2s14.692 5.06 14.692 14.2c0 .997-.174 2.11-.174 2.11h-21.025.014Zm.116-4.801h12.682c0-2.227-1.287-5.394-6.29-5.394-5.004 0-6.392 3.167-6.392 5.394ZM330.911 84.622c-2.69 0-3.673-1.2-3.673-5.003v-9.617h8.532V63.67h-8.532v-5.452h-4.251l-7.592 7.26v4.525h3.977v10.643c0 7.635 3.73 10.86 11.539 10.86h4.873v-6.897h-4.873v.014ZM226.102 34.329c0 4.453-2.516 6.507-6.261 6.507s-6.175-2.024-6.175-6.507V19.623h-8.083v14.98c0 9.761 8.17 13.593 14.301 13.593 6.132 0 14.316-3.832 14.316-13.593v-14.98h-8.083l-.044 14.691.029.015ZM198.772 26.448v-6.825h-26.245v6.825h15.53L171.89 40.85v6.826h27.851V40.85h-17.107l16.138-14.402ZM274.646 19.088c-5.119 0-8.98 2.082-10.889 5.249-1.952-3.167-6.175-5.25-10.57-5.25-8.633 0-13.13 5.496-13.13 12.292v16.297h8.083v-15.14c0-3.254 1.706-6.103 5.625-6.103a5.616 5.616 0 0 1 2.343.362c.751.29 1.431.723 1.995 1.287a5.706 5.706 0 0 1 1.287 1.995 5.63 5.63 0 0 1 .347 2.343v15.27h8.083V32.42c0-3.254 1.924-6 5.799-6 3.875 0 5.741 2.862 5.741 6.101v15.14h8.083V31.393c0-6.796-4.164-12.29-12.855-12.29h.072l-.014-.015ZM158.5 34.329c0 4.453-2.516 6.507-6.232 6.507-3.717 0-6.204-2.024-6.204-6.507V19.623h-8.083v14.98c0 9.761 8.141 13.593 14.301 13.593s14.287-3.832 14.287-13.593v-14.98h-8.083v14.691l.014.015Z" fill="#fff"/></svg>
